X: 1
T: Grey Bob, The
M: 4/4
L: 1/8
R: reel
K: Amix
|: cAeA cAAf | g2 dB g2 fa | cA (3AAA eAce | aece a2 ea |
ceAe ceAe | g2 dB g2 fa | c2 cA BAGB | A2 ag a2 ea :|
|: a2 ec aece | g2 dB g2 fa | a2 ec aeca | A2 ag a2 ea |
c2 ag aece | g2 dB g2 fa | c2 cA B2 GB | A2 ag a2 ca :|
